X:1
T: The Duke of Gordon's Fancy
C:
R:Jig
Q:180
K:Eb
M:6/8
L:1/16
|:e4e2 f2e2f2|e4e2 e4ga|b2a2g2 a2g2f2|g2f2e2 d2c2B2|
e4e2 f2e2f2|e4e2 e4ga|b2a2g2 f2g2e2|f2e2d2 e6:|
|:B4B2 e4_d2|c4c2 f4e2|d4f2 b4a2|g2a2f2 b2g2e2|
B4B2 e4_d2|c4c2 f4a2|g2f2e2 f2e2d2|e6 e6:|
